public/images/back.svg

<svg viewBox="0 0 24 24" fill="none" xmlns="http://www.w3.org/2000/svg"><path fill-rule="evenodd" clip-rule="evenodd" d="M12 16v4l-8-8 8-8v4h8v8h-8zm-5.17-4L10 15.17V14h8v-4h-8V8.83L6.83 12z" fill="#333"/></svg>

<svg viewBox="0 0 24 24" fill="none" xmlns="http://www.w3.org/2000/svg">
<path fill-rule="evenodd" clip-rule="evenodd" d="M12 16L12 20L4 12L12 4L12 8L20 8L20 16L12 16ZM6.83 12L10 15.17L10 14L18 14L18 10L10 10L10 8.83L6.83 12Z" fill="#333333"/>
</svg>
